X: 2
T:Villapouron
M:3/4
L:1/8
S:French Creek
K:D
D2F2G2|A2BA GF|D2F2G2|A2BA GF|E4F2|G2BA GF|E4F2|G2AG FE|!
D2F2G2|A2BA GF|D2F2G2|A2BA GF|E6|d2c2=c2|B2_B2A2|G2F2E2|!
D2FGA2|
K:G
||B3cB2|B2G2B2|d2c2B2|A4F2|A3BA2|A2F2A2|c2B2A2|B4G2|!
B3cB2|B2G2B2|d2c2B2|A4F2|A3BA2|A2F2A2|c2B2A2|G6||!
